assets/svg/icon-large-resource-run-dark-gray.svg

<?xml version="1.0" encoding="UTF-8" standalone="no"?>
<svg width="57px" height="64px" viewBox="0 0 57 64" version="1.1" xmlns="http://www.w3.org/2000/svg" xmlns:xlink="http://www.w3.org/1999/xlink">
    <!-- Generator: Sketch 3.8.3 (29802) - http://www.bohemiancoding.com/sketch -->
    <title>dark gray/icon-large-resource-run-dark-gray</title>
    <desc>Created with Sketch.</desc>
    <defs></defs>
    <g id="gray" stroke="none" stroke-width="1" fill="none" fill-rule="evenodd">
        <g id="icons,-large-detailed-(gray)" transform="translate(-807.000000, -919.000000)" fill="#242F36">
            <g id="dark-gray/icon-large-resource-run-dark-gray" transform="translate(807.000000, 919.000000)">
                <path d="M40.1933345,4.23398591 C39.738206,4.27961867 39.0852507,4.48147695 38.4313249,4.95682208 C37.3469953,5.74503209 36.6978332,7.03050472 36.6978332,8.8816914 L37.4463712,8.8816914 C37.4463712,7.26909042 37.9816731,6.20908399 38.8714501,5.56229624 C39.1814386,5.33696254 39.514752,5.17822159 39.847688,5.07529588 C40.0442915,5.01451678 40.1928183,4.98632871 40.2680111,4.97878962 L40.1933345,4.23398591 L40.1933345,4.23398591 Z" id="Path-8"></path>
                <path d="M24.0502459,42.4506682 C23.0951653,41.9718696 21.8551708,42.2555133 21.200909,43.1036556 L6.93982036,61.5908084 C6.78720301,61.7886517 6.38203979,61.9281948 6.16665072,61.8658795 L6.11869866,61.8520062 L6.06954272,61.8433137 C6.04759716,61.839433 5.99283967,61.8283277 5.91015577,61.8091042 C5.76478216,61.7753058 5.60087025,61.7315832 5.42336596,61.6771419 C4.91602648,61.5215387 4.40937347,61.3135072 3.94343371,61.0495791 C2.4566699,60.2074126 1.74779067,59.0501137 2.06939221,57.3699406 L1.90162345,57.7518463 L27.9217922,22.7096076 C28.5789148,21.8246385 28.4507689,20.5403594 27.6331587,19.8025718 L26.1426058,18.4575401 C25.2976007,17.6950321 23.9973702,17.7613984 23.2328414,18.6077895 L17.1614077,25.3293246 C16.9989246,25.5092056 16.6039342,25.6065689 16.4117145,25.5264494 L16.3468868,25.4994284 L16.2787517,25.4823879 C16.1946442,25.4613527 16.0109554,25.4001059 15.762085,25.2894754 C15.3346969,25.0994882 14.9058206,24.8421297 14.5076501,24.5102967 C13.6454169,23.7917164 13.0454541,22.8284451 12.8095789,21.5545033 L12.5919538,22.3429963 L21.3241229,12.4204672 C21.7937716,11.8867966 22.4097657,11.2908252 22.7766095,11.0373884 L22.8948058,10.9557317 L22.9830608,10.842377 C22.9998097,10.8208647 23.0786243,10.7445235 23.2102073,10.659083 C24.0150963,10.1364457 25.1522652,10.2989096 26.8775212,11.9500833 L41.6995244,25.4605034 C42.5372846,26.2241095 43.8357429,26.1718314 44.607312,25.3402099 L49.4004638,20.1739976 C49.6720416,19.8812823 50.2792891,19.5870837 50.6106868,19.582212 L50.7208869,19.5805921 L50.8276945,19.553411 C50.8265131,19.5537116 50.8508547,19.5487929 50.8969705,19.5421929 C51.3996904,19.4702452 51.989379,19.5517033 52.543706,19.9055061 C53.2981391,20.3870278 53.8983149,21.3226846 54.2491542,22.8804954 L54.43703,22.0833496 L46.6176777,31.6655124 C46.2639606,32.0989721 45.6393141,32.6183494 45.2803747,32.7679959 L44.982925,32.8920066 L44.824927,33.172883 C44.902217,33.0354829 44.9795338,32.9685451 44.9975101,32.9608634 C44.866437,33.0168745 44.6144943,33.0640025 44.2193654,33.0735838 C43.644813,33.0875159 42.8798807,33.0161015 41.9058431,32.838537 L42.3379706,33.0410116 L37.5160372,29.0121482 C36.6318947,28.273422 35.3284414,28.4155714 34.6249901,29.3273063 L29.5235515,35.9392212 C28.8236139,36.8464023 29.0016741,38.1387742 29.9239559,38.8237456 L32.3794271,40.6474046 C32.9783966,41.0922546 33.6074536,41.6382053 33.880867,41.9748649 L33.9880378,42.1068265 L34.1347781,42.192656 C34.142866,42.1973867 34.2115258,42.2547287 34.292403,42.3627534 C34.8115406,43.0561471 34.6849696,44.2652263 33.0992498,46.3320931 L24.781691,57.1587733 C24.5982777,57.3975159 24.1174734,57.6056011 23.8664063,57.5677674 L23.7830507,57.5552064 L23.6987923,57.5577461 C23.7044064,57.5575931 23.7044064,57.5575931 23.705616,57.5575741 C23.6724154,57.5580854 23.6095821,57.556217 23.5218256,57.5490949 C23.3767877,57.537324 23.2155247,57.5147019 23.0427046,57.4785872 C22.5598668,57.3776871 22.0802205,57.192467 21.6356642,56.9043188 C20.6197974,56.2458643 19.8985469,55.1340015 19.6029042,53.3952675 L19.4373178,54.1022628 L25.5678379,45.6684596 C26.2717488,44.7000841 25.9574731,43.406794 24.8884905,42.8708944 L24.0502455,42.450668 L24.0502459,42.4506682 Z M23.2115926,44.1235677 L24.0498373,44.543794 C24.0856391,44.561742 24.0789167,44.5340782 24.0541444,44.5681577 L17.9236242,53.001961 L17.6920047,53.3206018 L17.7580379,53.7089563 C18.1406981,55.9594571 19.1588147,57.5289616 20.6178237,58.4746478 C21.2690914,58.8967801 21.9629286,59.164712 22.6599127,59.310363 C22.9117776,59.362996 23.1500389,59.3964193 23.3704494,59.4143073 C23.5201605,59.4264575 23.6428887,59.4301069 23.7344285,59.4286973 C23.7472049,59.4284656 23.7472049,59.4284656 23.7551725,59.4282416 L23.7269824,58.4929939 L23.5875585,59.4182203 C24.5304405,59.5603048 25.6781451,59.0635948 26.2656695,58.2988346 L34.5836002,47.4716701 C36.6414236,44.789452 36.8629098,42.6736886 35.7904196,41.2412017 C35.545627,40.9142408 35.288617,40.6995964 35.0795917,40.5773358 L34.6071849,41.3849959 L35.3335027,40.7951269 C34.9368259,40.3066906 34.2105407,39.6763566 33.4951953,39.1450752 L31.0397241,37.3214162 C30.9582796,37.260928 30.9445078,37.1609716 31.0051606,37.0823602 L36.1065992,30.4704453 C36.1611917,30.3996886 36.2469175,30.3903397 36.3161718,30.4482037 L41.1381052,34.477067 L41.3274698,34.6352866 L41.5702327,34.6795416 C43.618468,35.0529296 44.9390105,35.0209083 45.7328594,34.6816753 C46.0836919,34.5317551 46.3253019,34.3225789 46.4559331,34.0903531 L45.64043,33.6316181 L46.0004854,34.4952402 C46.6806905,34.2116538 47.5348381,33.5014525 48.0675452,32.8486508 L55.8868975,23.266488 L56.1748345,22.9136379 L56.0747734,22.4693421 C55.6209629,20.4543148 54.7469066,19.0916862 53.5505095,18.3280781 C52.5691049,17.7016904 51.5407802,17.5596402 50.6318508,17.6897233 C50.5171757,17.7061352 50.4276372,17.7242284 50.3661727,17.7398703 L50.5969336,18.6466406 L50.5831805,17.7110692 C49.717309,17.7237977 48.6341322,18.2485742 48.0286188,18.9012157 L43.2354672,24.0674279 C43.1633701,24.1451364 43.039834,24.1501102 42.9601395,24.0774698 L28.1547769,10.5825923 C25.8440834,8.37073611 23.7572925,8.07260266 22.1910872,9.08958416 C21.8684738,9.29906619 21.6428104,9.51764759 21.50648,9.69275032 L22.2447704,10.2675637 L21.7129312,9.49773891 C21.1931305,9.85684711 20.4814756,10.5453698 19.919303,11.1841771 L11.1871339,21.1067062 L10.8867212,21.4480708 L10.9695087,21.8951993 C11.2884243,23.6176357 12.1247756,24.9604409 13.3095925,25.9478606 C13.8490335,26.3974277 14.4247409,26.7428961 15.0019366,26.9994773 C15.3558164,27.1567877 15.6409334,27.2518534 15.8247149,27.297817 L16.0517333,26.3901024 L15.691752,27.2537554 C16.6310634,27.645272 17.8662182,27.340812 18.5500998,26.5837035 L24.6215335,19.8621684 C24.6935187,19.7824753 24.8109304,19.7764824 24.8889232,19.8468609 L26.3794761,21.1918925 C26.4813395,21.2838111 26.5012799,21.4836536 26.4193515,21.5939894 L0.399182723,56.636228 L0.271635579,56.8080001 L0.231413957,57.0181337 C-0.259981884,59.5853791 0.89739344,61.4748818 3.02111322,62.6778472 C3.61582108,63.0147151 4.24557625,63.2732923 4.87464494,63.4662303 C5.25474756,63.5828094 5.55656826,63.6529807 5.74367908,63.6860685 L5.9066109,62.7646911 L5.64657108,63.6635027 C6.61174738,63.9427428 7.80633894,63.5313113 8.42153492,62.7338107 L22.6826232,44.2466582 C22.7900445,44.1074043 23.057372,44.0462542 23.2115922,44.1235675 L23.2115926,44.1235677 Z" id="Path-11"></path>
                <path d="M42.1258154,17.8929375 C47.0042011,17.8929375 50.9579149,13.9288082 50.9579149,9.040036 C50.9579149,4.15126377 47.0042011,0.187134503 42.1258154,0.187134503 C37.2474297,0.187134503 33.2937159,4.15126377 33.2937159,9.040036 C33.2937159,13.9288082 37.2474297,17.8929375 42.1258154,17.8929375 L42.1258154,17.8929375 Z M42.1258154,16.0215925 C38.2820487,16.0215925 35.1650609,12.8963934 35.1650609,9.040036 C35.1650609,5.18367858 38.2820487,2.05847953 42.1258154,2.05847953 C45.9695821,2.05847953 49.0865699,5.18367858 49.0865699,9.040036 C49.0865699,12.8963934 45.9695821,16.0215925 42.1258154,16.0215925 L42.1258154,16.0215925 Z" id="Oval-2"></path>
                <polygon id="Path-12" points="4.58339036 58.7221804 18.9548875 39.0874527 18.3508624 38.6453409 3.97936527 58.2800686"></polygon>
                <polygon id="Path-12" points="28.2089621 34.9199749 34.0523181 27.3194351 33.4588877 26.863201 27.6155317 34.4637408"></polygon>
            </g>
        </g>
    </g>
</svg>

<svg width="57" height="64" viewBox="0 0 57 64" xmlns="http://www.w3.org/2000/svg"><title>dark gray/icon-large-resource-run-dark-gray</title><g fill="#242F36" fill-rule="evenodd"><path d="M40.193 4.234c-.455.046-1.108.247-1.762.723-1.084.788-1.733 2.074-1.733 3.925h.748c0-1.613.536-2.673 1.425-3.32.31-.225.644-.384.977-.487.196-.06.345-.089.42-.096l-.075-.745zM24.05 42.45c-.955-.478-2.195-.194-2.85.654L6.94 61.59c-.153.198-.558.337-.773.275l-.048-.014-.05-.009a7.343 7.343 0 0 1-.646-.166 7.454 7.454 0 0 1-1.48-.627c-1.486-.843-2.195-2-1.874-3.68l-.167.382 26.02-35.042a2.197 2.197 0 0 0-.289-2.907l-1.49-1.345a2.059 2.059 0 0 0-2.91.15l-6.072 6.721c-.162.18-.557.278-.75.197l-.064-.027-.068-.017a3.614 3.614 0 0 1-.517-.193 5.37 5.37 0 0 1-1.254-.779c-.863-.718-1.463-1.682-1.698-2.955l-.218.788 8.732-9.923c.47-.533 1.086-1.13 1.453-1.383l.118-.081.088-.114c.017-.021.096-.097.227-.183.805-.523 1.942-.36 3.668 1.291L41.7 25.46a2.068 2.068 0 0 0 2.907-.12l4.793-5.166c.272-.293.88-.587 1.21-.592l.11-.001.108-.028.069-.01a2.41 2.41 0 0 1 1.647.363c.754.481 1.354 1.417 1.705 2.974l.188-.797-7.82 9.583c-.353.433-.978.952-1.337 1.102l-.297.124-.158.28a.604.604 0 0 1 .173-.211c-.132.056-.384.103-.779.113-.574.014-1.34-.058-2.313-.235l.432.202-4.822-4.029a2.01 2.01 0 0 0-2.891.315l-5.101 6.612c-.7.907-.522 2.2.4 2.885l2.455 1.823c.6.445 1.228.991 1.502 1.328l.107.132.147.086a.895.895 0 0 1 .157.17c.52.693.393 1.902-1.193 3.97l-8.317 10.826c-.184.239-.665.447-.916.409l-.083-.013-.084.003h.007a3.896 3.896 0 0 1-.663-.079 4.133 4.133 0 0 1-1.407-.575c-1.016-.658-1.737-1.77-2.033-3.509l-.166.707 6.13-8.434c.705-.968.39-2.261-.679-2.797l-.838-.42zm-.838 1.674l.838.42c.036.018.029-.01.004.024l-6.13 8.434-.232.319.066.388c.383 2.25 1.4 3.82 2.86 4.766a5.989 5.989 0 0 0 2.752.94c.15.011.273.015.364.014h.021l-.028-.936-.14.925c.943.142 2.091-.354 2.679-1.12l8.318-10.826c2.057-2.683 2.279-4.798 1.206-6.23a2.502 2.502 0 0 0-.71-.665l-.473.808.727-.59c-.397-.488-1.123-1.119-1.839-1.65l-2.455-1.824a.163.163 0 0 1-.035-.239l5.102-6.612c.054-.07.14-.08.21-.022l4.821 4.03.19.157.242.045c2.048.373 3.369.34 4.163.002.35-.15.592-.36.723-.592l-.816-.458.36.863c.68-.283 1.535-.994 2.068-1.646l7.819-9.583.288-.352-.1-.445c-.454-2.015-1.328-3.377-2.524-4.14a4.235 4.235 0 0 0-2.92-.64 2.62 2.62 0 0 0-.265.05l.23.908-.013-.936c-.866.013-1.949.538-2.554 1.19l-4.794 5.166a.196.196 0 0 1-.275.01L28.155 10.583c-2.31-2.212-4.398-2.51-5.964-1.493-.323.21-.548.428-.685.603l.739.575-.532-.77c-.52.359-1.232 1.047-1.794 1.686l-8.732 9.923-.3.341.083.447c.318 1.723 1.155 3.065 2.34 4.053.539.45 1.115.795 1.692 1.051.354.158.639.253.823.299l.227-.908-.36.864c.94.391 2.174.087 2.858-.67l6.072-6.722a.187.187 0 0 1 .267-.015l1.49 1.345a.33.33 0 0 1 .04.402L.4 56.636l-.127.172-.04.21c-.492 2.567.665 4.457 2.79 5.66a9.296 9.296 0 0 0 1.853.788c.38.117.682.187.869.22l.163-.921-.26.899c.965.279 2.16-.133 2.775-.93l14.26-18.487c.108-.14.375-.2.53-.123z"/><path d="M42.126 17.893c4.878 0 8.832-3.964 8.832-8.853 0-4.889-3.954-8.853-8.832-8.853-4.879 0-8.832 3.964-8.832 8.853 0 4.889 3.953 8.853 8.832 8.853zm0-1.871c-3.844 0-6.96-3.126-6.96-6.982 0-3.856 3.116-6.982 6.96-6.982s6.96 3.126 6.96 6.982c0 3.856-3.116 6.982-6.96 6.982zM4.583 58.722l14.372-19.635-.604-.442L3.979 58.28zM28.209 34.92l5.843-7.6-.593-.457-5.843 7.6z"/></g></svg>
